X: 15225
T: Girl For Me, The
R: jig
M: 6/8
K: Gmajor
G2G g2d|gab g2d|G2G g2e|dBB dAB|
G2G g2d|gab g2d|ede gfe|1 dBA DFA:|2 dBG AB/c/d||
e2e edB|dBG G2D|GAB deB|dge dBd|
e2e edB|dBG G2a|bgb agf|1 fge dBd:|2 fge dBA||

